report_00007_2020-12-11T15:55:29.892Z/uses-http2/comparison/line/7_vs_8.svg

<svg width="640" height="500" xmlns="http://www.w3.org/2000/svg" xmlns:xlink="http://www.w3.org/1999/xlink"><path fill="#fff" d="M0 0h640v500H0z"/><defs><path id="d" stroke-width=".222" stroke="currentColor" d="M-1-1h2v2h-2z"/><path id="b" stroke-width=".222" stroke="currentColor" d="M0-1.33l-1.33 2h2.66z"/><path id="f" stroke-width=".222" stroke="currentColor" d="M0 1.33L1.265.411.782-1.067l-1.564-.009-.483 1.487z"/><use xlink:href="#b" id="c" stroke="currentColor" transform="rotate(180)"/><use xlink:href="#d" id="e" stroke="currentColor" transform="rotate(45)"/><circle id="a" stroke-width=".222" stroke="currentColor" cx="0" cy="0" r="1"/></defs><g fill="none" color="#000" stroke="currentColor"><path stroke="#000" d="M53.9 437.8h9m552.1 0h-9"/><text transform="translate(45.6 441.7)" stroke="none" fill="#000" font-family="Arial" font-size="12" text-anchor="end"><tspan>160</tspan></text></g><g fill="none" color="#000" stroke="currentColor"><path stroke="#000" d="M53.9 389.4h9m552.1 0h-9"/><text transform="translate(45.6 393.3)" stroke="none" fill="#000" font-family="Arial" font-size="12" text-anchor="end"><tspan>180</tspan></text></g><g fill="none" color="#000" stroke="currentColor"><path stroke="#000" d="M53.9 341h9m552.1 0h-9"/><text transform="translate(45.6 344.9)" stroke="none" fill="#000" font-family="Arial" font-size="12" text-anchor="end"><tspan>200</tspan></text></g><g fill="none" color="#000" stroke="currentColor"><path stroke="#000" d="M53.9 292.6h9m552.1 0h-9"/><text transform="translate(45.6 296.5)" stroke="none" fill="#000" font-family="Arial" font-size="12" text-anchor="end"><tspan>220</tspan></text></g><g fill="none" color="#000" stroke="currentColor"><path stroke="#000" d="M53.9 244.2h9m552.1 0h-9"/><text transform="translate(45.6 248.1)" stroke="none" fill="#000" font-family="Arial" font-size="12" text-anchor="end"><tspan>240</tspan></text></g><g fill="none" color="#000" stroke="currentColor"><path stroke="#000" d="M53.9 195.7h9m552.1 0h-9"/><text transform="translate(45.6 199.6)" stroke="none" fill="#000" font-family="Arial" font-size="12" text-anchor="end"><tspan>260</tspan></text></g><g fill="none" color="#000" stroke="currentColor"><path stroke="#000" d="M53.9 147.3h9m552.1 0h-9"/><text transform="translate(45.6 151.2)" stroke="none" fill="#000" font-family="Arial" font-size="12" text-anchor="end"><tspan>280</tspan></text></g><g fill="none" color="#000" stroke="currentColor"><path stroke="#000" d="M53.9 98.9h9m552.1 0h-9"/><text transform="translate(45.6 102.8)" stroke="none" fill="#000" font-family="Arial" font-size="12" text-anchor="end"><tspan>300</tspan></text></g><g fill="none" color="#000" stroke="currentColor"><path stroke="#000" d="M53.9 50.5h9m552.1 0h-9"/><text transform="translate(45.6 54.4)" stroke="none" fill="#000" font-family="Arial" font-size="12" text-anchor="end"><tspan>320</tspan></text></g><g fill="none" color="#000" stroke="currentColor"><path stroke="#000" d="M53.9 446v-9m0-418.9v9"/><text transform="translate(53.9 467.9)" stroke="none" fill="#000" font-family="Arial" font-size="12" text-anchor="middle"><tspan>0</tspan></text></g><g fill="none" color="#000" stroke="currentColor"><path stroke="#000" d="M110.6 446v-9m0-418.9v9"/><text transform="translate(110.6 467.9)" stroke="none" fill="#000" font-family="Arial" font-size="12" text-anchor="middle"><tspan>10</tspan></text></g><g fill="none" color="#000" stroke="currentColor"><path stroke="#000" d="M167.3 446v-9m0-418.9v9"/><text transform="translate(167.3 467.9)" stroke="none" fill="#000" font-family="Arial" font-size="12" text-anchor="middle"><tspan>20</tspan></text></g><g fill="none" color="#000" stroke="currentColor"><path stroke="#000" d="M223.9 446v-9m0-418.9v9"/><text transform="translate(223.9 467.9)" stroke="none" fill="#000" font-family="Arial" font-size="12" text-anchor="middle"><tspan>30</tspan></text></g><g fill="none" color="#000" stroke="currentColor"><path stroke="#000" d="M280.6 446v-9m0-418.9v9"/><text transform="translate(280.6 467.9)" stroke="none" fill="#000" font-family="Arial" font-size="12" text-anchor="middle"><tspan>40</tspan></text></g><g fill="none" color="#000" stroke="currentColor"><path stroke="#000" d="M337.3 446v-9m0-418.9v9"/><text transform="translate(337.3 467.9)" stroke="none" fill="#000" font-family="Arial" font-size="12" text-anchor="middle"><tspan>50</tspan></text></g><g fill="none" color="#000" stroke="currentColor"><path stroke="#000" d="M394 446v-9m0-418.9v9"/><text transform="translate(394 467.9)" stroke="none" fill="#000" font-family="Arial" font-size="12" text-anchor="middle"><tspan>60</tspan></text></g><g fill="none" color="#000" stroke="currentColor"><path stroke="#000" d="M450.6 446v-9m0-418.9v9"/><text transform="translate(450.6 467.9)" stroke="none" fill="#000" font-family="Arial" font-size="12" text-anchor="middle"><tspan>70</tspan></text></g><g fill="none" color="#000" stroke="currentColor"><path stroke="#000" d="M507.3 446v-9m0-418.9v9"/><text transform="translate(507.3 467.9)" stroke="none" fill="#000" font-family="Arial" font-size="12" text-anchor="middle"><tspan>80</tspan></text></g><g fill="none" color="#000" stroke="currentColor"><path stroke="#000" d="M564 446v-9m0-418.9v9"/><text transform="translate(564 467.9)" stroke="none" fill="#000" font-family="Arial" font-size="12" text-anchor="middle"><tspan>90</tspan></text></g><path stroke="#000" d="M53.9 18.1V446H615V18.1H53.9z" fill="none" color="#000"/><text transform="translate(275.6 485.9)" stroke="none" fill="#000" font-family="Arial" font-size="12" text-anchor="end" color="#000"><tspan>pages+cached+noexternal+nosvg</tspan></text><path stroke="#9400D3" d="M283.9 482h42.2M53.9 437.8h17l5.7-363.1 5.6 363.1 5.7-24.2h5.7l5.6 24.2 5.7-24.2 5.7 24.2 5.6-363.1 5.7 338.9 5.7 24.2 5.6-24.2h5.7l5.7 24.2h5.7l5.6-363.1h5.7l5.7 363.1 5.6-363.1 5.7 363.1h17l5.7-24.2 5.6 24.2h17l5.7-24.2h5.7l5.6 24.2h17l5.7-24.2 5.7 24.2 5.6-363.1h5.7l5.7 363.1h5.6l5.7-24.2h5.7l5.6 24.2h11.4l5.6-24.2 5.7-363.1 5.7 24.2 5.7 338.9 5.6 24.2h5.7L360 74.7l5.6 363.1 5.7-363.1 5.7 338.9 5.6 24.2 5.7-363.1 5.7 338.9 5.6 24.2H428l5.6-24.2 5.7 24.2H462l5.6-387.3 5.7 387.3h11.3l5.7-363.1 5.7 338.9 5.6-338.9 5.7 338.9 5.7 24.2h22.7l5.6-387.3 5.7 24.2 5.7 363.1h22.6L581 74.7l5.7 338.9 5.6 24.2h5.7l5.7-363.1 5.6 363.1h5.7" fill="none" color="#000"/><text transform="translate(575.1 485.9)" stroke="none" fill="#000" font-family="Arial" font-size="12" text-anchor="end" color="#000"><tspan>pages+cached+noexternal+noimg</tspan></text><path stroke="#009E73" d="M583.4 482h42.2M53.9 26.3l5.7 24.2 5.6-24.2 5.7 363.1 5.7-338.9 5.6 387.3 5.7-363.1 5.7-24.2 5.6 24.2 5.7 338.9 5.7 24.2 5.6-411.5 5.7 411.5 5.7-387.3 5.6-24.2 5.7 411.5 5.7-363.1 5.7 363.1 5.6-411.5h5.7l5.7 48.4h5.6l5.7-48.4 5.7 411.5 5.6-387.3 5.7 24.2 5.7 363.1h5.6l5.7-363.1 5.7 363.1 5.6-387.3 5.7-24.2 5.7 24.2 5.6 24.2 5.7 363.1 5.7-411.5h5.6l5.7 24.2 5.7 24.2h5.6l5.7-48.4h5.7l5.6 411.5 5.7-24.2 5.7-363.1 5.6-24.2 5.7 48.4 5.7 338.9 5.6-338.9h5.7l5.7 363.1L343 26.3h5.6l5.7 411.5h5.7l5.6-48.4 5.7-338.9 5.7 387.3 5.6-411.5 5.7 48.4 5.7-24.2 5.6-24.2 5.7 24.2 5.7-24.2 5.6 411.5h5.7L428 50.5h5.6l5.7 24.2 5.7-48.4 5.6 387.3 5.7 24.2L462 50.5l5.6-24.2 5.7 411.5L479 50.5h5.6l5.7 24.2 5.7-48.4 5.6 387.3 5.7 24.2L513 74.7h5.6l5.7 363.1L530 26.3l5.7 24.2 5.6-24.2h11.4l5.6 363.1L564 50.5l5.7 24.2 5.6-48.4h5.7l5.7 48.4 5.6 363.1L598 26.3l5.7 363.1 5.6 48.4L615 26.3" fill="none" color="#000"/><g fill="none" color="#000" stroke="currentColor"><path stroke="#000" d="M53.9 18.1V446H615V18.1H53.9z"/></g></svg>

<?xml version="1.0" encoding="utf-8"  standalone="no"?>
<svg 
 width="640" height="500"
 viewBox="0 0 640 500"
 xmlns="http://www.w3.org/2000/svg"
 xmlns:xlink="http://www.w3.org/1999/xlink"
>

<title>Gnuplot</title>
<desc>Produced by GNUPLOT 5.4 patchlevel 0 </desc>

<g id="gnuplot_canvas">

<rect x="0" y="0" width="640" height="500" fill="#ffffff"/>
<defs>

	<circle id='gpDot' r='0.5' stroke-width='0.5' stroke='currentColor'/>
	<path id='gpPt0' stroke-width='0.222' stroke='currentColor' d='M-1,0 h2 M0,-1 v2'/>
	<path id='gpPt1' stroke-width='0.222' stroke='currentColor' d='M-1,-1 L1,1 M1,-1 L-1,1'/>
	<path id='gpPt2' stroke-width='0.222' stroke='currentColor' d='M-1,0 L1,0 M0,-1 L0,1 M-1,-1 L1,1 M-1,1 L1,-1'/>
	<rect id='gpPt3' stroke-width='0.222' stroke='currentColor' x='-1' y='-1' width='2' height='2'/>
	<rect id='gpPt4' stroke-width='0.222' stroke='currentColor' fill='currentColor' x='-1' y='-1' width='2' height='2'/>
	<circle id='gpPt5' stroke-width='0.222' stroke='currentColor' cx='0' cy='0' r='1'/>
	<use xlink:href='#gpPt5' id='gpPt6' fill='currentColor' stroke='none'/>
	<path id='gpPt7' stroke-width='0.222' stroke='currentColor' d='M0,-1.33 L-1.33,0.67 L1.33,0.67 z'/>
	<use xlink:href='#gpPt7' id='gpPt8' fill='currentColor' stroke='none'/>
	<use xlink:href='#gpPt7' id='gpPt9' stroke='currentColor' transform='rotate(180)'/>
	<use xlink:href='#gpPt9' id='gpPt10' fill='currentColor' stroke='none'/>
	<use xlink:href='#gpPt3' id='gpPt11' stroke='currentColor' transform='rotate(45)'/>
	<use xlink:href='#gpPt11' id='gpPt12' fill='currentColor' stroke='none'/>
	<path id='gpPt13' stroke-width='0.222' stroke='currentColor' d='M0,1.330 L1.265,0.411 L0.782,-1.067 L-0.782,-1.076 L-1.265,0.411 z'/>
	<use xlink:href='#gpPt13' id='gpPt14' fill='currentColor' stroke='none'/>
	<filter id='textbox' filterUnits='objectBoundingBox' x='0' y='0' height='1' width='1'>
	  <feFlood flood-color='#FFFFFF' flood-opacity='1' result='bgnd'/>
	  <feComposite in='SourceGraphic' in2='bgnd' operator='atop'/>
	</filter>
	<filter id='greybox' filterUnits='objectBoundingBox' x='0' y='0' height='1' width='1'>
	  <feFlood flood-color='lightgrey' flood-opacity='1' result='grey'/>
	  <feComposite in='SourceGraphic' in2='grey' operator='atop'/>
	</filter>
</defs>
<g fill="none" color="#FFFFFF" stroke="black" stroke-width="1.00" stroke-linecap="butt" stroke-linejoin="miter">
</g>
<g fill="none" color="black" stroke="currentColor" stroke-width="1.00" stroke-linecap="butt" stroke-linejoin="miter">
	<path stroke='black'  d='M53.9,437.8 L62.9,437.8 M615.0,437.8 L606.0,437.8  '/>	<g transform="translate(45.6,441.7)" stroke="none" fill="black" font-family="Arial" font-size="12.00"  text-anchor="end">
		<text><tspan font-family="Arial" > 160</tspan></text>
	</g>
</g>
<g fill="none" color="black" stroke="currentColor" stroke-width="1.00" stroke-linecap="butt" stroke-linejoin="miter">
	<path stroke='black'  d='M53.9,389.4 L62.9,389.4 M615.0,389.4 L606.0,389.4  '/>	<g transform="translate(45.6,393.3)" stroke="none" fill="black" font-family="Arial" font-size="12.00"  text-anchor="end">
		<text><tspan font-family="Arial" > 180</tspan></text>
	</g>
</g>
<g fill="none" color="black" stroke="currentColor" stroke-width="1.00" stroke-linecap="butt" stroke-linejoin="miter">
	<path stroke='black'  d='M53.9,341.0 L62.9,341.0 M615.0,341.0 L606.0,341.0  '/>	<g transform="translate(45.6,344.9)" stroke="none" fill="black" font-family="Arial" font-size="12.00"  text-anchor="end">
		<text><tspan font-family="Arial" > 200</tspan></text>
	</g>
</g>
<g fill="none" color="black" stroke="currentColor" stroke-width="1.00" stroke-linecap="butt" stroke-linejoin="miter">
	<path stroke='black'  d='M53.9,292.6 L62.9,292.6 M615.0,292.6 L606.0,292.6  '/>	<g transform="translate(45.6,296.5)" stroke="none" fill="black" font-family="Arial" font-size="12.00"  text-anchor="end">
		<text><tspan font-family="Arial" > 220</tspan></text>
	</g>
</g>
<g fill="none" color="black" stroke="currentColor" stroke-width="1.00" stroke-linecap="butt" stroke-linejoin="miter">
	<path stroke='black'  d='M53.9,244.2 L62.9,244.2 M615.0,244.2 L606.0,244.2  '/>	<g transform="translate(45.6,248.1)" stroke="none" fill="black" font-family="Arial" font-size="12.00"  text-anchor="end">
		<text><tspan font-family="Arial" > 240</tspan></text>
	</g>
</g>
<g fill="none" color="black" stroke="currentColor" stroke-width="1.00" stroke-linecap="butt" stroke-linejoin="miter">
	<path stroke='black'  d='M53.9,195.7 L62.9,195.7 M615.0,195.7 L606.0,195.7  '/>	<g transform="translate(45.6,199.6)" stroke="none" fill="black" font-family="Arial" font-size="12.00"  text-anchor="end">
		<text><tspan font-family="Arial" > 260</tspan></text>
	</g>
</g>
<g fill="none" color="black" stroke="currentColor" stroke-width="1.00" stroke-linecap="butt" stroke-linejoin="miter">
	<path stroke='black'  d='M53.9,147.3 L62.9,147.3 M615.0,147.3 L606.0,147.3  '/>	<g transform="translate(45.6,151.2)" stroke="none" fill="black" font-family="Arial" font-size="12.00"  text-anchor="end">
		<text><tspan font-family="Arial" > 280</tspan></text>
	</g>
</g>
<g fill="none" color="black" stroke="currentColor" stroke-width="1.00" stroke-linecap="butt" stroke-linejoin="miter">
	<path stroke='black'  d='M53.9,98.9 L62.9,98.9 M615.0,98.9 L606.0,98.9  '/>	<g transform="translate(45.6,102.8)" stroke="none" fill="black" font-family="Arial" font-size="12.00"  text-anchor="end">
		<text><tspan font-family="Arial" > 300</tspan></text>
	</g>
</g>
<g fill="none" color="black" stroke="currentColor" stroke-width="1.00" stroke-linecap="butt" stroke-linejoin="miter">
	<path stroke='black'  d='M53.9,50.5 L62.9,50.5 M615.0,50.5 L606.0,50.5  '/>	<g transform="translate(45.6,54.4)" stroke="none" fill="black" font-family="Arial" font-size="12.00"  text-anchor="end">
		<text><tspan font-family="Arial" > 320</tspan></text>
	</g>
</g>
<g fill="none" color="black" stroke="currentColor" stroke-width="1.00" stroke-linecap="butt" stroke-linejoin="miter">
	<path stroke='black'  d='M53.9,446.0 L53.9,437.0 M53.9,18.1 L53.9,27.1  '/>	<g transform="translate(53.9,467.9)" stroke="none" fill="black" font-family="Arial" font-size="12.00"  text-anchor="middle">
		<text><tspan font-family="Arial" > 0</tspan></text>
	</g>
</g>
<g fill="none" color="black" stroke="currentColor" stroke-width="1.00" stroke-linecap="butt" stroke-linejoin="miter">
	<path stroke='black'  d='M110.6,446.0 L110.6,437.0 M110.6,18.1 L110.6,27.1  '/>	<g transform="translate(110.6,467.9)" stroke="none" fill="black" font-family="Arial" font-size="12.00"  text-anchor="middle">
		<text><tspan font-family="Arial" > 10</tspan></text>
	</g>
</g>
<g fill="none" color="black" stroke="currentColor" stroke-width="1.00" stroke-linecap="butt" stroke-linejoin="miter">
	<path stroke='black'  d='M167.3,446.0 L167.3,437.0 M167.3,18.1 L167.3,27.1  '/>	<g transform="translate(167.3,467.9)" stroke="none" fill="black" font-family="Arial" font-size="12.00"  text-anchor="middle">
		<text><tspan font-family="Arial" > 20</tspan></text>
	</g>
</g>
<g fill="none" color="black" stroke="currentColor" stroke-width="1.00" stroke-linecap="butt" stroke-linejoin="miter">
	<path stroke='black'  d='M223.9,446.0 L223.9,437.0 M223.9,18.1 L223.9,27.1  '/>	<g transform="translate(223.9,467.9)" stroke="none" fill="black" font-family="Arial" font-size="12.00"  text-anchor="middle">
		<text><tspan font-family="Arial" > 30</tspan></text>
	</g>
</g>
<g fill="none" color="black" stroke="currentColor" stroke-width="1.00" stroke-linecap="butt" stroke-linejoin="miter">
	<path stroke='black'  d='M280.6,446.0 L280.6,437.0 M280.6,18.1 L280.6,27.1  '/>	<g transform="translate(280.6,467.9)" stroke="none" fill="black" font-family="Arial" font-size="12.00"  text-anchor="middle">
		<text><tspan font-family="Arial" > 40</tspan></text>
	</g>
</g>
<g fill="none" color="black" stroke="currentColor" stroke-width="1.00" stroke-linecap="butt" stroke-linejoin="miter">
	<path stroke='black'  d='M337.3,446.0 L337.3,437.0 M337.3,18.1 L337.3,27.1  '/>	<g transform="translate(337.3,467.9)" stroke="none" fill="black" font-family="Arial" font-size="12.00"  text-anchor="middle">
		<text><tspan font-family="Arial" > 50</tspan></text>
	</g>
</g>
<g fill="none" color="black" stroke="currentColor" stroke-width="1.00" stroke-linecap="butt" stroke-linejoin="miter">
	<path stroke='black'  d='M394.0,446.0 L394.0,437.0 M394.0,18.1 L394.0,27.1  '/>	<g transform="translate(394.0,467.9)" stroke="none" fill="black" font-family="Arial" font-size="12.00"  text-anchor="middle">
		<text><tspan font-family="Arial" > 60</tspan></text>
	</g>
</g>
<g fill="none" color="black" stroke="currentColor" stroke-width="1.00" stroke-linecap="butt" stroke-linejoin="miter">
	<path stroke='black'  d='M450.6,446.0 L450.6,437.0 M450.6,18.1 L450.6,27.1  '/>	<g transform="translate(450.6,467.9)" stroke="none" fill="black" font-family="Arial" font-size="12.00"  text-anchor="middle">
		<text><tspan font-family="Arial" > 70</tspan></text>
	</g>
</g>
<g fill="none" color="black" stroke="currentColor" stroke-width="1.00" stroke-linecap="butt" stroke-linejoin="miter">
	<path stroke='black'  d='M507.3,446.0 L507.3,437.0 M507.3,18.1 L507.3,27.1  '/>	<g transform="translate(507.3,467.9)" stroke="none" fill="black" font-family="Arial" font-size="12.00"  text-anchor="middle">
		<text><tspan font-family="Arial" > 80</tspan></text>
	</g>
</g>
<g fill="none" color="black" stroke="currentColor" stroke-width="1.00" stroke-linecap="butt" stroke-linejoin="miter">
	<path stroke='black'  d='M564.0,446.0 L564.0,437.0 M564.0,18.1 L564.0,27.1  '/>	<g transform="translate(564.0,467.9)" stroke="none" fill="black" font-family="Arial" font-size="12.00"  text-anchor="middle">
		<text><tspan font-family="Arial" > 90</tspan></text>
	</g>
</g>
<g fill="none" color="black" stroke="currentColor" stroke-width="1.00" stroke-linecap="butt" stroke-linejoin="miter">
</g>
<g fill="none" color="black" stroke="currentColor" stroke-width="1.00" stroke-linecap="butt" stroke-linejoin="miter">
	<path stroke='black'  d='M53.9,18.1 L53.9,446.0 L615.0,446.0 L615.0,18.1 L53.9,18.1 Z  '/></g>
<g fill="none" color="black" stroke="currentColor" stroke-width="1.00" stroke-linecap="butt" stroke-linejoin="miter">
</g>
	<g id="gnuplot_plot_1" ><title>pages+cached+noexternal+nosvg</title>
<g fill="none" color="black" stroke="currentColor" stroke-width="1.00" stroke-linecap="butt" stroke-linejoin="miter">
	<g transform="translate(275.6,485.9)" stroke="none" fill="black" font-family="Arial" font-size="12.00"  text-anchor="end">
		<text><tspan font-family="Arial" >pages+cached+noexternal+nosvg</tspan></text>
	</g>
</g>
<g fill="none" color="black" stroke="currentColor" stroke-width="1.00" stroke-linecap="butt" stroke-linejoin="miter">
	<path stroke='rgb(148,   0, 211)'  d='M283.9,482.0 L326.1,482.0 M53.9,437.8 L59.6,437.8 L65.2,437.8 L70.9,437.8 L76.6,74.7 L82.2,437.8
		L87.9,413.6 L93.6,413.6 L99.2,437.8 L104.9,413.6 L110.6,437.8 L116.2,74.7 L121.9,413.6 L127.6,437.8
		L133.2,413.6 L138.9,413.6 L144.6,437.8 L150.3,437.8 L155.9,74.7 L161.6,74.7 L167.3,437.8 L172.9,74.7
		L178.6,437.8 L184.3,437.8 L189.9,437.8 L195.6,437.8 L201.3,413.6 L206.9,437.8 L212.6,437.8 L218.3,437.8
		L223.9,437.8 L229.6,413.6 L235.3,413.6 L240.9,437.8 L246.6,437.8 L252.3,437.8 L257.9,437.8 L263.6,413.6
		L269.3,437.8 L274.9,74.7 L280.6,74.7 L286.3,437.8 L291.9,437.8 L297.6,413.6 L303.3,413.6 L308.9,437.8
		L314.6,437.8 L320.3,437.8 L325.9,413.6 L331.6,50.5 L337.3,74.7 L343.0,413.6 L348.6,437.8 L354.3,437.8
		L360.0,74.7 L365.6,437.8 L371.3,74.7 L377.0,413.6 L382.6,437.8 L388.3,74.7 L394.0,413.6 L399.6,437.8
		L405.3,437.8 L411.0,437.8 L416.6,437.8 L422.3,437.8 L428.0,437.8 L433.6,413.6 L439.3,437.8 L445.0,437.8
		L450.6,437.8 L456.3,437.8 L462.0,437.8 L467.6,50.5 L473.3,437.8 L479.0,437.8 L484.6,437.8 L490.3,74.7
		L496.0,413.6 L501.6,74.7 L507.3,413.6 L513.0,437.8 L518.6,437.8 L524.3,437.8 L530.0,437.8 L535.7,437.8
		L541.3,50.5 L547.0,74.7 L552.7,437.8 L558.3,437.8 L564.0,437.8 L569.7,437.8 L575.3,437.8 L581.0,74.7
		L586.7,413.6 L592.3,437.8 L598.0,437.8 L603.7,74.7 L609.3,437.8 L615.0,437.8  '/></g>
	</g>
	<g id="gnuplot_plot_2" ><title>pages+cached+noexternal+noimg</title>
<g fill="none" color="black" stroke="currentColor" stroke-width="1.00" stroke-linecap="butt" stroke-linejoin="miter">
	<g transform="translate(575.1,485.9)" stroke="none" fill="black" font-family="Arial" font-size="12.00"  text-anchor="end">
		<text><tspan font-family="Arial" >pages+cached+noexternal+noimg</tspan></text>
	</g>
</g>
<g fill="none" color="black" stroke="currentColor" stroke-width="1.00" stroke-linecap="butt" stroke-linejoin="miter">
	<path stroke='rgb(  0, 158, 115)'  d='M583.4,482.0 L625.6,482.0 M53.9,26.3 L59.6,50.5 L65.2,26.3 L70.9,389.4 L76.6,50.5 L82.2,437.8
		L87.9,74.7 L93.6,50.5 L99.2,74.7 L104.9,413.6 L110.6,437.8 L116.2,26.3 L121.9,437.8 L127.6,50.5
		L133.2,26.3 L138.9,437.8 L144.6,74.7 L150.3,437.8 L155.9,26.3 L161.6,26.3 L167.3,74.7 L172.9,74.7
		L178.6,26.3 L184.3,437.8 L189.9,50.5 L195.6,74.7 L201.3,437.8 L206.9,437.8 L212.6,74.7 L218.3,437.8
		L223.9,50.5 L229.6,26.3 L235.3,50.5 L240.9,74.7 L246.6,437.8 L252.3,26.3 L257.9,26.3 L263.6,50.5
		L269.3,74.7 L274.9,74.7 L280.6,26.3 L286.3,26.3 L291.9,437.8 L297.6,413.6 L303.3,50.5 L308.9,26.3
		L314.6,74.7 L320.3,413.6 L325.9,74.7 L331.6,74.7 L337.3,437.8 L343.0,26.3 L348.6,26.3 L354.3,437.8
		L360.0,437.8 L365.6,389.4 L371.3,50.5 L377.0,437.8 L382.6,26.3 L388.3,74.7 L394.0,50.5 L399.6,26.3
		L405.3,50.5 L411.0,26.3 L416.6,437.8 L422.3,437.8 L428.0,50.5 L433.6,50.5 L439.3,74.7 L445.0,26.3
		L450.6,413.6 L456.3,437.8 L462.0,50.5 L467.6,26.3 L473.3,437.8 L479.0,50.5 L484.6,50.5 L490.3,74.7
		L496.0,26.3 L501.6,413.6 L507.3,437.8 L513.0,74.7 L518.6,74.7 L524.3,437.8 L530.0,26.3 L535.7,50.5
		L541.3,26.3 L547.0,26.3 L552.7,26.3 L558.3,389.4 L564.0,50.5 L569.7,74.7 L575.3,26.3 L581.0,26.3
		L586.7,74.7 L592.3,437.8 L598.0,26.3 L603.7,389.4 L609.3,437.8 L615.0,26.3  '/></g>
	</g>
<g fill="none" color="#FFFFFF" stroke="rgb(  0, 158, 115)" stroke-width="2.00" stroke-linecap="butt" stroke-linejoin="miter">
</g>
<g fill="none" color="black" stroke="currentColor" stroke-width="2.00" stroke-linecap="butt" stroke-linejoin="miter">
</g>
<g fill="none" color="black" stroke="black" stroke-width="1.00" stroke-linecap="butt" stroke-linejoin="miter">
</g>
<g fill="none" color="black" stroke="currentColor" stroke-width="1.00" stroke-linecap="butt" stroke-linejoin="miter">
	<path stroke='black'  d='M53.9,18.1 L53.9,446.0 L615.0,446.0 L615.0,18.1 L53.9,18.1 Z  '/></g>
<g fill="none" color="black" stroke="currentColor" stroke-width="1.00" stroke-linecap="butt" stroke-linejoin="miter">
</g>
</g>
</svg>
